X:27
T:The Marchioness
C:Trad.
S:Petrie's Collection of Strathspey Reels and Country Dances &c., 1790
Z:Steve Wyrick , 2/27/04
N:Petrie's First Collection, page 13
L:1/8
M:6/8
R:Jig
K:A
  E|A2A TAGA|B2B  e2d|c2A TAGA|GBG EFG|
    A2A TAGA|B2B  e2d|cBA  BAG|A2A A2:|
|:z|e2e cde |f2f Tf3 |g2g  efg|abg a3 |
    e2e cde |fga  agf|edc  BAG|A2A A2:|
